; generated by Slic3r 1.3.0-dev on 2018-01-14 at 20:50:32

; external perimeters extrusion width = 0.40mm (2.82mm^3/s)
; perimeters extrusion width = 0.40mm (4.03mm^3/s)
; infill extrusion width = 0.50mm (9.15mm^3/s)
; solid infill extrusion width = 0.50mm (6.53mm^3/s)
; top infill extrusion width = 0.50mm (4.57mm^3/s)

M107
G21 ; set units to millimeters
M140 S65 ; set bed-temperature
M104 S195 ; set extruder temperature
G28 ; home all axis
G90 ; use absolute coordinates

; move to clean position
G1 X2 Y220 F6000 
G1 Z0.5 F2000

M116 ; wait for all temperatures to be reached

G90 ; use absolute coordinates
G92 E0
M82 ; use absolute distances for extrusion
G92 E0
; extrude a little bit
G1 E6.00000 F6000.000
G1 F900.000
; move onto bed
G1 X2 Y70 E9
; Filament gcode

G21 ; set units to millimeters
G90 ; use absolute coordinates
M82 ; use absolute distances for extrusion
G92 E0
G1 E-1.00000 F6000.00000
G92 E0
G1 Z0.300 F7800.000
G1 Z0.600 F7800.000
G1 X77.353 Y94.026 F7800.000
G1 Z0.300 F7800.000
G1 E1.00000 F6000.00000
G1 F1080
G1 X79.761 Y92.236 E1.06148
G1 X82.556 Y91.143 E1.12295
G1 X85.242 Y90.819 E1.17837
G1 X104.758 Y90.819 E1.57817
G1 X107.732 Y91.217 E1.63965
G1 X110.497 Y92.384 E1.70112
G1 X112.858 Y94.237 E1.76260
G1 X114.648 Y96.645 E1.82408
G1 X115.741 Y99.440 E1.88555
G1 X116.065 Y102.126 E1.94097
G1 X116.065 Y117.874 E2.26358
G1 X115.667 Y120.848 E2.32505
G1 X114.500 Y123.613 E2.38653
G1 X112.647 Y125.974 E2.44801
G1 X110.239 Y127.764 E2.50948
G1 X107.444 Y128.857 E2.57096
G1 X104.758 Y129.181 E2.62638
G1 X85.242 Y129.181 E3.02618
G1 X82.267 Y128.783 E3.08765
G1 X79.503 Y127.616 E3.14913
G1 X77.142 Y125.763 E3.21061
G1 X75.352 Y123.355 E3.27208
G1 X74.259 Y120.560 E3.33356
G1 X73.935 Y117.874 E3.38898
G1 X73.935 Y102.126 E3.71158
G1 X74.333 Y99.152 E3.77306
G1 X75.500 Y96.387 E3.83454
G1 X77.316 Y94.073 E3.89478
G1 X77.781 Y94.219 F7800.000
G1 F1080
G1 X80.175 Y92.508 E3.95506
G1 X82.940 Y91.501 E4.01533
G1 X85.242 Y91.255 E4.06276
G1 X104.758 Y91.255 E4.46257
G1 X107.673 Y91.653 E4.52284
G1 X110.375 Y92.818 E4.58311
G1 X112.665 Y94.665 E4.64339
G1 X114.376 Y97.059 E4.70366
G1 X115.383 Y99.824 E4.76394
G1 X115.629 Y102.126 E4.81137
G1 X115.629 Y117.874 E5.13398
G1 X115.231 Y120.789 E5.19425
G1 X114.066 Y123.491 E5.25453
G1 X112.219 Y125.781 E5.31480
G1 X109.825 Y127.492 E5.37508
G1 X107.060 Y128.499 E5.43535
G1 X104.758 Y128.745 E5.48278
G1 X85.242 Y128.745 E5.88259
G1 X82.327 Y128.347 E5.94286
G1 X79.625 Y127.182 E6.00313
G1 X77.335 Y125.335 E6.06341
G1 X75.624 Y122.941 E6.12368
G1 X74.617 Y120.176 E6.18396
G1 X74.371 Y117.874 E6.23139
G1 X74.371 Y102.126 E6.55400
G1 X74.769 Y99.211 E6.61427
G1 X75.934 Y96.509 E6.67455
G1 X77.744 Y94.266 E6.73359
G1 X78.209 Y94.416 F7800.000
G1 F1080
G1 X80.587 Y92.786 E6.79264
G1 X83.319 Y91.869 E6.85169
G1 X85.242 Y91.690 E6.89125
G1 X104.758 Y91.690 E7.29105
G1 X107.613 Y92.088 E7.35010
G1 X110.250 Y93.252 E7.40915
G1 X112.468 Y95.093 E7.46820
G1 X114.098 Y97.471 E7.52724
G1 X115.015 Y100.203 E7.58629
G1 X115.194 Y102.126 E7.62585
G1 X115.194 Y117.874 E7.94846
G1 X114.796 Y120.729 E8.00751
G1 X113.632 Y123.366 E8.06656
G1 X111.791 Y125.584 E8.12560
G1 X109.413 Y127.214 E8.18465
G1 X106.681 Y128.131 E8.24370
G1 X104.758 Y128.310 E8.28326
G1 X85.242 Y128.310 E8.68306
G1 X82.387 Y127.912 E8.74211
G1 X79.750 Y126.748 E8.80116
G1 X77.532 Y124.907 E8.86021
G1 X75.902 Y122.529 E8.91926
G1 X74.985 Y119.797 E8.97831
G1 X74.806 Y117.874 E9.01786
G1 X74.806 Y102.126 E9.34047
G1 X75.204 Y99.271 E9.39952
G1 X76.368 Y96.634 E9.45857
G1 X78.171 Y94.462 E9.51639
G1 E8.51639 F6000.00000
G92 E0
G1 Z0.600 F7800.000
G1 X93.277 Y112.351 F7800.000
G1 Z0.300 F7800.000
G1 E1.00000 F6000.00000
G1 F540
G1 X92.751 Y112.655 E1.01244
G1 X92.173 Y112.842 E1.02489
G1 X91.569 Y112.905 E1.03733
G1 X90.965 Y112.842 E1.04977
G1 X90.388 Y112.654 E1.06221
G1 X89.862 Y112.350 E1.07466
G1 X89.411 Y111.943 E1.08710
G1 X89.054 Y111.451 E1.09954
G1 X88.807 Y110.896 E1.11199
G1 X88.681 Y110.302 E1.12443
G1 X88.682 Y109.695 E1.13687
G1 X88.808 Y109.101 E1.14931
G1 X89.056 Y108.546 E1.16176
G1 X89.413 Y108.055 E1.17420
G1 X89.865 Y107.649 E1.18664
G1 X90.391 Y107.345 E1.19909
G1 X90.969 Y107.158 E1.21153
G1 X91.554 Y107.097 E1.22359
G1 X92.213 Y107.161 E1.23716
G1 X92.763 Y107.352 E1.24908
G1 X93.280 Y107.650 E1.26131
G1 X93.731 Y108.057 E1.27375
G1 X94.088 Y108.549 E1.28620
G1 X94.335 Y109.104 E1.29864
G1 X94.461 Y109.698 E1.31108
G1 X94.460 Y110.305 E1.32353
G1 X94.334 Y110.899 E1.33597
G1 X94.086 Y111.454 E1.34841
G1 X93.729 Y111.945 E1.36085
G1 X93.322 Y112.311 E1.37207
G1 X93.020 Y111.997 F7800.000
G1 F540
G1 X92.573 Y112.255 E1.38263
G1 X92.083 Y112.414 E1.39320
G1 X91.570 Y112.467 E1.40377
G1 X91.057 Y112.413 E1.41434
G1 X90.566 Y112.254 E1.42490
G1 X90.120 Y111.995 E1.43547
G1 X89.736 Y111.650 E1.44604
G1 X89.433 Y111.232 E1.45660
G1 X89.224 Y110.761 E1.46717
G1 X89.117 Y110.257 E1.47774
G1 X89.117 Y109.741 E1.48830
G1 X89.225 Y109.236 E1.49887
G1 X89.435 Y108.765 E1.50944
G1 X89.738 Y108.348 E1.52001
G1 X90.122 Y108.003 E1.53057
G1 X90.569 Y107.745 E1.54114
G1 X91.059 Y107.586 E1.55171
G1 X91.555 Y107.534 E1.56192
G1 X92.119 Y107.590 E1.57353
G1 X92.581 Y107.750 E1.58355
G1 X93.022 Y108.005 E1.59398
G1 X93.406 Y108.350 E1.60455
G1 X93.709 Y108.767 E1.61512
G1 X93.918 Y109.239 E1.62569
G1 X94.025 Y109.743 E1.63625
G1 X94.025 Y110.259 E1.64682
G1 X93.917 Y110.764 E1.65739
G1 X93.707 Y111.235 E1.66795
G1 X93.404 Y111.652 E1.67852
G1 X93.065 Y111.957 E1.68786
G1 X92.763 Y111.642 F7800.000
G1 F540
G1 X92.395 Y111.854 E1.69655
G1 X91.992 Y111.985 E1.70524
G1 X91.570 Y112.029 E1.71393
G1 X91.148 Y111.985 E1.72262
G1 X90.745 Y111.853 E1.73131
G1 X90.377 Y111.641 E1.74000
G1 X90.062 Y111.357 E1.74870
G1 X89.813 Y111.014 E1.75739
G1 X89.641 Y110.626 E1.76608
G1 X89.553 Y110.211 E1.77477
G1 X89.553 Y109.787 E1.78346
G1 X89.641 Y109.372 E1.79215
G1 X89.814 Y108.984 E1.80084
G1 X90.064 Y108.641 E1.80953
G1 X90.379 Y108.358 E1.81823
G1 X90.747 Y108.146 E1.82692
G1 X91.150 Y108.015 E1.83561
G1 X91.557 Y107.972 E1.84398
G1 X92.026 Y108.018 E1.85363
G1 X92.399 Y108.148 E1.86174
G1 X92.765 Y108.359 E1.87038
G1 X93.080 Y108.643 E1.87907
G1 X93.329 Y108.986 E1.88776
G1 X93.501 Y109.374 E1.89645
G1 X93.589 Y109.789 E1.90515
G1 X93.589 Y110.213 E1.91384
G1 X93.501 Y110.628 E1.92253
G1 X93.328 Y111.016 E1.93122
G1 X93.078 Y111.359 E1.93991
G1 X92.808 Y111.602 E1.94737
G1 X92.763 Y111.642 F7800.000
G1 E0.94737 F6000.00000
G92 E0
G1 Z0.600 F7800.000
G1 X86.363 Y116.753 F7800.000
G1 Z0.300 F7800.000
G1 E1.00000 F6000.00000
G1 F720
G1 X86.363 Y103.247 E1.27667
G1 X103.637 Y103.247 E1.63053
G1 X103.637 Y116.753 E1.90720
G1 X86.423 Y116.753 E2.25984
G1 X85.927 Y117.188 F7800.000
G1 F720
G1 X85.927 Y102.812 E2.55435
G1 X104.073 Y102.812 E2.92606
G1 X104.073 Y117.188 E3.22058
G1 X85.987 Y117.188 E3.59106
G1 X85.492 Y117.624 F7800.000
G1 F504
G1 X85.492 Y102.376 E3.90343
G1 X104.508 Y102.376 E4.29299
G1 X104.508 Y117.624 E4.60535
G1 X85.552 Y117.624 E4.99368
G1 X85.609 Y117.242 F7800.000
G1 E3.99368 F6000.00000
G92 E0
G1 Z0.600 F7800.000
G1 X88.502 Y108.776 F7800.000
G1 Z0.300 F7800.000
G1 E1.00000 F6000.00000
G1 F900
G1 X86.753 Y110.525 E1.05082
G1 X86.753 Y111.143 E1.06351
G1 X88.292 Y109.603 E1.10825
G1 X88.292 Y110.221 E1.12095
G1 X86.753 Y111.761 E1.16567
G1 X86.753 Y112.378 E1.17837
G1 X88.386 Y110.745 E1.22582
G1 X88.437 Y110.985 E1.23087
G1 X88.537 Y111.211 E1.23595
G1 X86.753 Y112.996 E1.28781
G1 X86.753 Y113.614 E1.30050
G1 X88.730 Y111.637 E1.35795
G1 X88.990 Y111.995 E1.36704
G1 X86.753 Y114.232 E1.43204
G1 X86.753 Y114.850 E1.44473
G1 X89.279 Y112.323 E1.51814
G1 X89.604 Y112.616 E1.52712
G1 X86.753 Y115.467 E1.60997
G1 X86.753 Y116.085 E1.62266
G1 X89.986 Y112.852 E1.71661
G1 X90.256 Y113.007 E1.72300
G1 X90.401 Y113.055 E1.72614
G1 X87.092 Y116.363 E1.82227
G1 X87.710 Y116.363 E1.83496
G1 X90.867 Y113.206 E1.92668
G1 X91.415 Y113.276 E1.93803
G1 X88.328 Y116.363 E2.02773
G1 X88.946 Y116.363 E2.04042
G1 X92.058 Y113.251 E2.13084
G1 X92.311 Y113.225 E2.13606
G1 X92.890 Y113.037 E2.14858
G1 X89.563 Y116.363 E2.24523
G1 X90.181 Y116.363 E2.25792
G1 X102.908 Y103.637 E2.62767
G1 X103.247 Y103.637 E2.63465
G1 X103.247 Y103.915 E2.64036
G1 X90.799 Y116.363 E3.00203
G1 X91.417 Y116.363 E3.01472
G1 X103.247 Y104.533 E3.35844
G1 X103.247 Y105.150 E3.37113
G1 X92.035 Y116.363 E3.69690
G1 X92.652 Y116.363 E3.70959
G1 X103.247 Y105.768 E4.01741
G1 X103.247 Y106.386 E4.03010
G1 X93.270 Y116.363 E4.31997
G1 X93.888 Y116.363 E4.33266
G1 X103.247 Y107.004 E4.60458
G1 X103.247 Y107.622 E4.61727
G1 X94.506 Y116.363 E4.87125
G1 X95.124 Y116.363 E4.88394
G1 X103.247 Y108.239 E5.11996
G1 X103.247 Y108.857 E5.13265
G1 X95.741 Y116.363 E5.35073
G1 X96.359 Y116.363 E5.36342
G1 X103.247 Y109.475 E5.56355
G1 X103.247 Y110.093 E5.57624
G1 X96.977 Y116.363 E5.75842
G1 X97.595 Y116.363 E5.77111
G1 X103.247 Y110.711 E5.93534
G1 X103.247 Y111.328 E5.94803
G1 X98.213 Y116.363 E6.09431
G1 X98.830 Y116.363 E6.10700
G1 X103.247 Y111.946 E6.23533
G1 X103.247 Y112.564 E6.24802
G1 X99.448 Y116.363 E6.35840
G1 X100.066 Y116.363 E6.37110
G1 X103.247 Y113.182 E6.46353
G1 X103.247 Y113.800 E6.47622
G1 X100.684 Y116.363 E6.55070
G1 X101.302 Y116.363 E6.56340
G1 X103.247 Y114.417 E6.61993
G1 X103.247 Y115.035 E6.63262
G1 X101.919 Y116.363 E6.67121
G1 X102.537 Y116.363 E6.68390
G1 X103.247 Y115.653 E6.70454
G1 X103.247 Y116.271 E6.71723
G1 X103.155 Y116.363 E6.71992
G1 E5.71992 F6000.00000
G92 E0
G1 Z0.600 F7800.000
G1 X94.590 Y111.337 F7800.000
G1 Z0.300 F7800.000
G1 E1.00000 F6000.00000
G1 F900
G1 X102.290 Y103.637 E1.22371
G1 X101.672 Y103.637 E1.23640
G1 X94.833 Y110.476 E1.43510
G1 X94.850 Y110.398 E1.43675
G1 X94.850 Y109.841 E1.44818
G1 X101.054 Y103.637 E1.62844
G1 X100.437 Y103.637 E1.64113
G1 X94.767 Y109.306 E1.80585
G1 X94.705 Y109.015 E1.81198
G1 X94.624 Y108.832 E1.81609
G1 X99.819 Y103.637 E1.96702
G1 X99.201 Y103.637 E1.97972
G1 X94.434 Y108.404 E2.11822
G1 X94.178 Y108.042 E2.12733
G1 X98.583 Y103.637 E2.25531
G1 X97.966 Y103.637 E2.26800
G1 X93.896 Y107.707 E2.38624
G1 X93.571 Y107.414 E2.39523
G1 X97.348 Y103.637 E2.50497
G1 X96.730 Y103.637 E2.51766
G1 X93.195 Y107.171 E2.62035
G1 X92.899 Y107.000 E2.62738
G1 X92.787 Y106.961 E2.62980
G1 X96.112 Y103.637 E2.72639
G1 X95.494 Y103.637 E2.73909
G1 X92.328 Y106.802 E2.83106
G1 X92.261 Y106.779 E2.83253
G1 X91.781 Y106.732 E2.84243
G1 X94.877 Y103.637 E2.93236
G1 X94.259 Y103.637 E2.94505
G1 X91.154 Y106.742 E3.03527
G1 X90.831 Y106.775 E3.04192
G1 X90.344 Y106.934 E3.05245
G1 X93.641 Y103.637 E3.14823
G1 X93.023 Y103.637 E3.16092
G1 X86.753 Y109.907 E3.34310
G1 X86.753 Y109.289 E3.35580
G1 X92.405 Y103.637 E3.52003
G1 X91.788 Y103.637 E3.53272
G1 X86.753 Y108.672 E3.67900
G1 X86.753 Y108.054 E3.69169
G1 X91.170 Y103.637 E3.82002
G1 X90.552 Y103.637 E3.83271
G1 X86.753 Y107.436 E3.94310
G1 X86.753 Y106.818 E3.95579
G1 X89.934 Y103.637 E4.04822
G1 X89.316 Y103.637 E4.06092
G1 X86.753 Y106.200 E4.13540
G1 X86.753 Y105.583 E4.14809
G1 X88.699 Y103.637 E4.20463
G1 X88.081 Y103.637 E4.21732
G1 X86.753 Y104.965 E4.25591
G1 X86.753 Y104.347 E4.26860
G1 X87.463 Y103.637 E4.28924
G1 X86.845 Y103.637 E4.30193
G1 X86.753 Y103.729 E4.30462
M106 S255
M140 S50 ; set bed temperature
G1 E3.30462 F6000.00000
G92 E0
G1 Z0.600 F7800.000
G1 Z0.900 F7800.000
G1 X90.010 Y112.146 F7800.000
G1 Z0.600 F7800.000
G1 E1.00000 F6000.00000
G1 F942.13
G1 X89.598 Y111.775 E1.00876
G1 X89.272 Y111.326 E1.01751
G1 X89.046 Y110.819 E1.02627
G1 X88.931 Y110.276 E1.03503
G1 X88.932 Y109.721 E1.04379
G1 X89.047 Y109.178 E1.05254
G1 X89.273 Y108.672 E1.06130
G1 X89.600 Y108.223 E1.07006
G1 X90.012 Y107.852 E1.07881
G1 X90.493 Y107.575 E1.08757
G1 X91.021 Y107.404 E1.09633
G1 X91.519 Y107.352 E1.10424
G1 X92.115 Y107.401 E1.11368
G1 X92.652 Y107.576 E1.12259
G1 X93.132 Y107.854 E1.13134
G1 X93.544 Y108.225 E1.14010
G1 X93.870 Y108.674 E1.14886
G1 X94.096 Y109.181 E1.15762
G1 X94.211 Y109.724 E1.16637
G1 X94.210 Y110.279 E1.17513
G1 X94.095 Y110.822 E1.18389
G1 X93.869 Y111.328 E1.19264
G1 X93.542 Y111.777 E1.20140
G1 X93.130 Y112.148 E1.21016
G1 X92.649 Y112.425 E1.21891
G1 X92.121 Y112.596 E1.22767
G1 X91.570 Y112.654 E1.23643
G1 X91.018 Y112.596 E1.24519
G1 X90.490 Y112.424 E1.25394
G1 X90.062 Y112.176 E1.26175
G1 X90.208 Y111.873 F7800.000
G1 F942.13
G1 X89.849 Y111.549 E1.26940
G1 X89.564 Y111.157 E1.27704
G1 X89.367 Y110.715 E1.28468
G1 X89.267 Y110.241 E1.29233
G1 X89.267 Y109.757 E1.29997
G1 X89.368 Y109.283 E1.30762
G1 X89.565 Y108.841 E1.31526
G1 X89.850 Y108.449 E1.32290
G1 X90.210 Y108.125 E1.33055
G1 X90.630 Y107.883 E1.33819
G1 X91.091 Y107.734 E1.34583
G1 X91.523 Y107.689 E1.35269
G1 X92.048 Y107.732 E1.36101
G1 X92.514 Y107.884 E1.36875
G1 X92.934 Y108.127 E1.37639
G1 X93.293 Y108.451 E1.38404
G1 X93.578 Y108.843 E1.39168
G1 X93.775 Y109.285 E1.39933
G1 X93.875 Y109.759 E1.40697
G1 X93.875 Y110.243 E1.41461
G1 X93.774 Y110.717 E1.42226
G1 X93.577 Y111.159 E1.42990
G1 X93.292 Y111.551 E1.43754
G1 X92.932 Y111.875 E1.44519
G1 X92.512 Y112.117 E1.45283
G1 X92.051 Y112.266 E1.46047
G1 X91.570 Y112.317 E1.46812
G1 X91.088 Y112.266 E1.47576
G1 X90.628 Y112.116 E1.48340
G1 X90.260 Y111.903 E1.49010
G1 X90.407 Y111.600 F7800.000
G1 F1800
G1 X90.099 Y111.323 E1.49663
G1 X89.856 Y110.989 E1.50316
G1 X89.688 Y110.611 E1.50969
G1 X89.603 Y110.206 E1.51622
G1 X89.603 Y109.792 E1.52275
G1 X89.689 Y109.387 E1.52928
G1 X89.858 Y109.009 E1.53581
G1 X90.101 Y108.675 E1.54234
G1 X90.409 Y108.398 E1.54887
G1 X90.767 Y108.192 E1.55540
G1 X91.161 Y108.064 E1.56193
G1 X91.526 Y108.026 E1.56774
G1 X91.981 Y108.064 E1.57494
G1 X92.377 Y108.192 E1.58151
G1 X92.735 Y108.400 E1.58804
G1 X93.042 Y108.677 E1.59457
G1 X93.286 Y109.011 E1.60110
G1 X93.454 Y109.389 E1.60763
G1 X93.539 Y109.794 E1.61416
G1 X93.539 Y110.208 E1.62069
G1 X93.453 Y110.613 E1.62722
G1 X93.284 Y110.991 E1.63375
G1 X93.041 Y111.325 E1.64028
G1 X92.733 Y111.602 E1.64681
G1 X92.375 Y111.808 E1.65334
G1 X91.981 Y111.936 E1.65987
G1 X91.570 Y111.979 E1.66640
G1 X91.158 Y111.936 E1.67293
G1 X90.765 Y111.808 E1.67946
G1 X90.459 Y111.631 E1.68504
G1 X90.407 Y111.600 F7800.000
G1 E0.68504 F6000.00000
G92 E0
G1 Z0.900 F7800.000
G1 X86.113 Y117.003 F7800.000
G1 Z0.600 F7800.000
G1 E1.00000 F6000.00000
G1 F1256.17
G1 X86.113 Y102.997 E1.22105
G1 X103.887 Y102.997 E1.50157
G1 X103.887 Y117.003 E1.72262
G1 X86.173 Y117.003 E2.00220
G1 X85.777 Y117.338 F7800.000
G1 F1256.17
G1 X85.777 Y102.662 E2.23384
G1 X104.223 Y102.662 E2.52496
G1 X104.223 Y117.338 E2.75660
G1 X85.837 Y117.338 E3.04677
G1 X85.442 Y117.674 F7800.000
G1 F1680
G1 X85.442 Y102.326 E3.28901
G1 X104.558 Y102.326 E3.59072
G1 X104.558 Y117.674 E3.83296
G1 X85.502 Y117.674 E4.13372
G1 X85.559 Y117.292 F7800.000
G1 X86.540 Y116.658 F7800.000
G1 F1570.22
G1 X86.458 Y116.576 E4.13609
G1 X86.458 Y115.959 E4.14876
G1 X87.157 Y116.658 E4.16904
G1 X87.774 Y116.658 E4.18170
G1 X86.458 Y115.342 E4.21989
G1 X86.458 Y114.725 E4.23256
G1 X88.391 Y116.658 E4.28865
G1 X89.008 Y116.658 E4.30132
G1 X86.458 Y114.108 E4.37532
G1 X86.458 Y113.491 E4.38798
G1 X89.625 Y116.658 E4.47989
G1 X90.242 Y116.658 E4.49256
G1 X86.458 Y112.874 E4.60238
G1 X86.458 Y112.257 E4.61504
G1 X90.859 Y116.658 E4.74276
G1 X91.476 Y116.658 E4.75542
G1 X86.458 Y111.640 E4.90106
G1 X86.458 Y111.022 E4.91372
G1 X92.093 Y116.658 E5.07726
G1 X92.711 Y116.658 E5.08992
G1 X86.458 Y110.405 E5.27136
G1 X86.458 Y109.788 E5.28403
G1 X93.328 Y116.658 E5.48338
G1 X93.945 Y116.658 E5.49604
G1 X89.383 Y112.096 E5.62842
G1 X89.741 Y112.419 E5.63832
G1 X90.291 Y112.737 E5.65136
G1 X90.810 Y112.906 E5.66255
G1 X94.562 Y116.658 E5.77143
G1 X95.179 Y116.658 E5.78409
G1 X91.521 Y113.000 E5.89024
G1 X92.081 Y112.943 E5.90180
G1 X95.796 Y116.658 E6.00960
G1 X96.413 Y116.658 E6.02226
G1 X92.560 Y112.805 E6.13407
G1 X92.766 Y112.739 E6.13850
G1 X92.984 Y112.612 E6.14368
G1 X97.030 Y116.658 E6.26108
G1 X97.647 Y116.658 E6.27374
G1 X93.366 Y112.377 E6.39798
G1 X93.691 Y112.085 E6.40695
G1 X98.264 Y116.658 E6.53966
G1 X98.881 Y116.658 E6.55233
G1 X93.970 Y111.747 E6.69484
